X:232
T: Der Kaempfer geistlich
N: A0589
O: Europa, Mitteleuropa, Deutschland
N: Offnes Bl. 1510.
R: Romanze, Ballade, Lied, religioeses Lied
M: 3/2
L: 1/4
K: G
G2 | G2A_B2c | A2G2
d2 | _B2dc2B | A4
G2 | G2A_B2c | A2G2
d2 | _B2dc2B | A4
d2 | _B2dc2B | A2G2
_B2 | cd_BcA2 | G4

